X:135 
T:Martin Wynne's Reel 1 
B:CRE3.206 (Ril MhÃÂÃÂÃÂÃÂ¡irtÃÂÃÂÃÂÃÂ­n UÃÂÃÂÃÂÃÂ­ Ghaoithin Uimh. 1)
F:file ID: cre.3/135mart_w1
R:reel
L:1/8
%Q:180
M:C
K:D
B|A3F GEE2|FdAF (3EFE DB,|A,B,DE FEFB|ABde fedB|
[1 AFF2 GEE2|FGAF EFDB,|A,B,DE FEFB|ABde fAd:|
[2(3ABA FA GFEG|FEDF EB,DB,|A,B,DE FEFB|ABde fdd||
e|a3f gfeg|fedf eBB2|dBAF DFAB|dfaf geeg|
faaf g3a|f3g eBB2|dBAF AFAB|ABde fddf|
agfa gfeg|fedf (3efe ce|dBAF DFAB|dfba geeg|
faaf g3e|fedf dBB2|dBAF DFAB|ABde fedB||d8||

%%%

